X:31
T:Rossignolet du bois
O:France
B:Le livre des Chansons (Henri Davenson) n°31
Z:<anamnese@caramail.com> -- http://anamnese.fr.st
M:6/8
L:1/8
Q:1/4=80
K:C
A A A e-d f | e2 z A B c |\
 d2 B (c>dc/B/|A2) z A B c |
d2 e d c d | e3 ^f g f | e12-|e4 ||
W:"Rossignolet du bois, rossignolet sauvage,
W:Apprends-moi ton langage, apprends-moi-z-à parler,
W:Apprends-moi la manière comment il faut aimer.

